components/AnnouncementBar/logos/color-orbit.svg

<svg width="254" height="159" viewBox="0 0 254 159" fill="none" xmlns="http://www.w3.org/2000/svg">
<path fill-rule="evenodd" clip-rule="evenodd" d="M130.221 74.47H117.702V116.96H130.221V99.2329C130.212 97.3045 130.324 95.3776 130.556 93.4648C130.728 91.8715 131.225 90.3355 132.015 88.9603C132.796 87.6841 133.911 86.6683 135.229 86.0332C136.622 85.3333 138.509 84.9832 140.89 84.9832C141.798 84.9802 142.705 85.0531 143.602 85.2013C144.487 85.3549 145.36 85.5736 146.215 85.8559V73.8565C145.559 73.6753 144.889 73.5583 144.212 73.5064C143.485 73.4518 142.762 73.42 142.035 73.42C139.254 73.42 136.944 74.0761 135.107 75.388C133.269 76.7002 131.684 78.6697 130.352 81.2971H130.182L130.221 74.47ZM165.057 50.8662H152.547V116.96H164.064V111.364H164.234C164.807 112.207 165.464 112.984 166.193 113.682C167.055 114.511 168.008 115.23 169.033 115.823C170.156 116.481 171.344 117.008 172.577 117.396C173.905 117.812 175.284 118.019 176.671 118.009C179.473 118.049 182.254 117.499 184.848 116.391C187.234 115.36 189.382 113.811 191.149 111.846C192.935 109.839 194.312 107.475 195.199 104.896C196.169 102.063 196.65 99.073 196.619 96.0646C196.626 93.169 196.185 90.2911 195.312 87.5422C194.503 84.9319 193.26 82.4905 191.641 80.329C190.07 78.2428 188.091 76.5292 185.837 75.3019C183.436 74.0176 180.769 73.3714 178.073 73.42C175.587 73.3978 173.116 73.8268 170.77 74.6881C168.544 75.5134 166.609 77.0218 165.218 79.0153H165.053L165.057 50.8662ZM166.686 103.496C164.944 101.514 164.073 98.9206 164.073 95.7148C164.073 92.5087 164.944 89.9149 166.686 87.9331C168.427 85.9513 170.895 84.9604 174.088 84.9604C177.282 84.9604 179.749 85.9513 181.491 87.9331C183.233 89.9149 184.104 92.5087 184.104 95.7148C184.104 98.9206 183.233 101.514 181.491 103.496C179.749 105.478 177.282 106.469 174.088 106.469C170.895 106.469 168.43 105.478 166.694 103.496H166.686ZM242.829 84.9604H253.846V74.47H242.829V61.8976H230.314V74.4883H222.301V84.9787H230.314V105.174C230.259 107.218 230.644 109.25 231.441 111.119C232.15 112.697 233.227 114.064 234.573 115.096C235.975 116.142 237.559 116.894 239.236 117.309C241.149 117.791 243.112 118.026 245.08 118.009C246.558 118.006 248.035 117.918 249.504 117.746C250.991 117.579 252.453 117.227 253.859 116.696V105.787C253.155 106.374 252.297 106.724 251.398 106.792C250.532 106.919 249.66 106.992 248.786 107.01C247.681 107.057 246.579 106.864 245.55 106.442C244.801 106.118 244.172 105.55 243.756 104.823C243.344 104.056 243.088 103.208 243.003 102.333C242.886 101.277 242.831 100.214 242.837 99.151L242.829 84.9604ZM204.326 55.7161C203.145 56.9551 202.412 58.5832 202.251 60.3229C202.091 62.0629 202.513 63.8071 203.446 65.2588C204.379 66.7102 205.764 67.7794 207.368 68.2843C208.971 68.7892 210.692 68.6986 212.239 68.0278C213.785 67.357 215.061 66.1474 215.849 64.6051C216.637 63.0628 216.888 61.2832 216.561 59.569C216.233 57.8548 215.347 56.3122 214.052 55.2037C212.757 54.095 211.135 53.489 209.46 53.4888C208.504 53.4767 207.556 53.6678 206.673 54.0508C205.791 54.4337 204.992 55.0003 204.326 55.7161ZM215.722 74.47H203.198V116.96H215.722V74.47Z" fill="#1E2124"/>
<path fill-rule="evenodd" clip-rule="evenodd" d="M109.872 69.5611C108.862 61.594 105.994 54.0071 101.519 47.4671C97.044 40.9272 91.099 35.634 84.207 32.0526C77.314 28.4711 69.684 26.7108 61.988 26.9263C54.291 27.1418 46.763 29.3265 40.064 33.2886C33.3655 37.2506 27.7011 42.8688 23.5685 49.6498C19.4359 56.4307 16.9615 64.1671 16.3627 72.1795C15.7638 80.1919 17.0586 88.2352 20.1336 95.6032C23.2086 102.971 27.9696 109.438 33.9985 114.437C38.614 112.292 43.661 109.787 49.022 106.978C43.6 104.267 38.993 100.057 35.7012 94.8064C32.4093 89.5555 30.5579 83.4637 30.3482 77.1922C30.1384 70.921 31.5779 64.7092 34.5108 59.2315C37.444 53.7536 41.758 49.2188 46.985 46.1191C52.212 43.0194 58.153 41.4733 64.163 41.6484C70.172 41.8235 76.021 43.7133 81.074 47.1126C86.128 50.5119 90.193 55.291 92.828 60.931C95.464 66.571 96.569 72.8569 96.024 79.1065C100.988 75.82 105.63 72.6202 109.872 69.5611ZM110.268 75.1246C105.517 78.7927 100.252 82.5925 94.592 86.4244C92.063 94.7023 86.624 101.673 79.369 105.933C72.115 110.193 63.583 111.425 55.492 109.382C49.287 112.496 43.4 115.191 38.009 117.423C45.179 122.183 53.451 124.826 61.945 125.072C70.44 125.317 78.839 123.156 86.25 118.817C93.662 114.479 99.809 108.125 104.037 100.432C108.266 92.7385 110.419 83.9929 110.268 75.1246Z" fill="#1E2124"/>
<path fill-rule="evenodd" clip-rule="evenodd" d="M112.655 35.1984C113.291 35.1984 113.913 35.0014 114.442 34.6323C114.972 34.2632 115.384 33.7386 115.628 33.1249C115.871 32.5111 115.935 31.8357 115.811 31.1841C115.687 30.5326 115.38 29.934 114.93 29.4643C114.48 28.9945 113.907 28.6746 113.283 28.545C112.658 28.4154 112.011 28.4819 111.423 28.7362C110.835 28.9904 110.333 29.4209 109.979 29.9733C109.626 30.5257 109.437 31.1751 109.437 31.8395C109.436 32.2807 109.519 32.7178 109.681 33.1256C109.842 33.5334 110.079 33.9039 110.378 34.2159C110.677 34.528 111.032 34.7754 111.423 34.9439C111.813 35.1125 112.232 35.199 112.655 35.1984Z" fill="#00CCF5"/>
<path fill-rule="evenodd" clip-rule="evenodd" d="M4.37522 92.2697C5.22402 92.2697 6.05382 92.0069 6.75942 91.5143C7.46512 91.0217 8.01482 90.3218 8.33912 89.5028C8.66332 88.6838 8.74752 87.7829 8.58092 86.9141C8.41442 86.0453 8.00462 85.2476 7.40342 84.6221C6.80232 83.9963 6.03682 83.5712 5.20392 83.3999C4.37102 83.2286 3.50822 83.3192 2.72472 83.6603C1.94122 84.0011 1.27222 84.5771 0.802518 85.3151C0.332718 86.0534 0.0834187 86.9201 0.0860187 87.8063C0.0894187 88.9913 0.542822 90.1265 1.34682 90.9632C2.15082 91.7999 3.23992 92.2697 4.37522 92.2697Z" fill="#00CCF5"/>
<path fill-rule="evenodd" clip-rule="evenodd" d="M76.813 65.8981C81.446 63.2254 85.957 60.6892 90.312 58.3483C90.473 58.621 90.647 58.9438 90.83 59.3074C86.515 61.6618 82.004 64.2073 77.37 66.8845L76.813 65.8981ZM136.992 42.0488C134.924 38.308 122.383 42.2806 104.634 50.9394C104.799 51.2258 104.965 51.5212 105.121 51.8212C122.126 43.3715 133.992 39.3035 135.498 42.5761C137.867 46.8577 110.678 67.8661 74.797 89.4973C38.915 111.128 7.88531 125.192 5.51641 120.91C4.16651 118.365 10.842 111.428 16.8381 105.91C8.2031 113.183 3.6744 118.787 5.1637 121.478C8.5428 127.591 41.249 115.569 77.658 93.6427C114.066 71.716 140.389 48.1622 136.992 42.0488Z" fill="#00CCF5"/>
<path d="M72.55 69.4518C71.782 68.0775 71.496 66.468 71.738 64.8978C71.98 63.3273 72.737 61.8936 73.88 60.8406C75.022 59.7876 76.478 59.1807 78.001 59.1234C79.524 59.0661 81.019 59.562 82.23 60.5265C83.442 61.491 84.296 62.8644 84.646 64.4124C84.996 65.9604 84.821 67.5873 84.15 69.0156C83.48 70.4439 82.356 71.5851 80.969 72.2451C79.583 72.9048 78.02 73.0419 76.547 72.6336C75.708 72.4149 74.921 72.0198 74.234 71.4729C73.546 70.9257 72.973 70.2381 72.55 69.4518Z" fill="#FA00E9"/>
</svg>

<svg xmlns="http://www.w3.org/2000/svg" width="254" height="159" fill="none" viewBox="0 0 254 159">
  <path fill="#1E2124" fill-rule="evenodd" d="M130.221 74.47h-12.519v42.49h12.519V99.233a46.123 46.123 0 0 1 .335-5.768 11.53 11.53 0 0 1 1.459-4.505 7.695 7.695 0 0 1 3.214-2.927c1.393-.7 3.28-1.05 5.661-1.05.908-.003 1.815.07 2.712.218a18.33 18.33 0 0 1 2.613.655v-12a10.546 10.546 0 0 0-2.003-.35 29.012 29.012 0 0 0-2.177-.086c-2.781 0-5.091.656-6.928 1.968-1.838 1.312-3.423 3.282-4.755 5.91h-.17l.039-6.828Zm34.836-23.604h-12.51v66.094h11.517v-5.596h.17a14.767 14.767 0 0 0 4.799 4.459 17.252 17.252 0 0 0 3.544 1.573c1.328.416 2.707.623 4.094.613 2.802.04 5.583-.51 8.177-1.618a18.18 18.18 0 0 0 6.301-4.545 20.456 20.456 0 0 0 4.05-6.95 26.437 26.437 0 0 0 1.42-8.831 27.945 27.945 0 0 0-1.307-8.523 23.768 23.768 0 0 0-3.671-7.213 18.13 18.13 0 0 0-5.804-5.027 15.842 15.842 0 0 0-7.764-1.882 20.643 20.643 0 0 0-7.303 1.268c-2.226.825-4.161 2.334-5.552 4.327h-.165l.004-28.149Zm1.629 52.63c-1.742-1.982-2.613-4.575-2.613-7.781 0-3.206.871-5.8 2.613-7.782 1.741-1.982 4.209-2.973 7.402-2.973 3.194 0 5.661.991 7.403 2.973 1.742 1.982 2.613 4.576 2.613 7.782 0 3.206-.871 5.799-2.613 7.781-1.742 1.982-4.209 2.973-7.403 2.973-3.193 0-5.658-.991-7.394-2.973h-.008Zm76.143-18.536h11.017V74.47h-11.017V61.898h-12.515v12.59h-8.013v10.49h8.013v20.196a14.196 14.196 0 0 0 1.127 5.945 10.347 10.347 0 0 0 3.132 3.977 13.037 13.037 0 0 0 4.663 2.213c1.913.482 3.876.717 5.844.7a38.717 38.717 0 0 0 4.424-.263 18.012 18.012 0 0 0 4.355-1.05v-10.909a4.354 4.354 0 0 1-2.461 1.005c-.866.127-1.738.2-2.612.218a7.663 7.663 0 0 1-3.236-.568 3.825 3.825 0 0 1-1.794-1.619 6.617 6.617 0 0 1-.753-2.49 27.493 27.493 0 0 1-.166-3.182l-.008-14.19Zm-38.503-29.244a7.706 7.706 0 0 0-2.075 4.607 7.819 7.819 0 0 0 1.195 4.936 7.272 7.272 0 0 0 3.922 3.025 6.959 6.959 0 0 0 4.871-.256 7.364 7.364 0 0 0 3.61-3.423 7.855 7.855 0 0 0 .712-5.036 7.625 7.625 0 0 0-2.509-4.365 7.057 7.057 0 0 0-4.592-1.715 6.782 6.782 0 0 0-2.787.562 7.037 7.037 0 0 0-2.347 1.665Zm11.396 18.754h-12.524v42.49h12.524V74.47Zm-105.85-4.909c-1.01-7.967-3.878-15.554-8.353-22.094-4.475-6.54-10.42-11.833-17.312-15.414-6.893-3.582-14.523-5.342-22.219-5.127-7.697.216-15.225 2.4-21.924 6.363-6.699 3.962-12.363 9.58-16.495 16.36-4.133 6.782-6.607 14.518-7.206 22.53a51.007 51.007 0 0 0 3.77 23.424c3.076 7.368 7.837 13.835 13.866 18.834 4.615-2.145 9.662-4.65 15.023-7.459-5.422-2.711-10.029-6.921-13.32-12.172-3.293-5.25-5.144-11.342-5.354-17.614-.21-6.271 1.23-12.483 4.163-17.96 2.933-5.478 7.247-10.013 12.474-13.113 5.227-3.1 11.168-4.646 17.178-4.47 6.009.175 11.858 2.064 16.911 5.464 5.054 3.399 9.119 8.178 11.754 13.818a35.66 35.66 0 0 1 3.196 18.175 423.337 423.337 0 0 0 13.848-9.545Zm.396 5.564c-4.751 3.668-10.016 7.468-15.676 11.3-2.529 8.277-7.968 15.248-15.223 19.508-7.254 4.26-15.786 5.492-23.877 3.449-6.205 3.114-12.092 5.809-17.483 8.041 7.17 4.76 15.442 7.403 23.936 7.649 8.495.245 16.894-1.916 24.305-6.255 7.412-4.338 13.559-10.692 17.787-18.385 4.229-7.694 6.382-16.44 6.231-25.307Z" clip-rule="evenodd"/>
  <path fill="#00CCF5" fill-rule="evenodd" d="M112.655 35.198a3.12 3.12 0 0 0 1.787-.566c.53-.369.942-.893 1.186-1.507.243-.614.307-1.29.183-1.94a3.406 3.406 0 0 0-.881-1.72 3.177 3.177 0 0 0-1.647-.92 3.094 3.094 0 0 0-1.86.191 3.253 3.253 0 0 0-1.444 1.237 3.47 3.47 0 0 0-.542 1.867c-.001.44.082.878.244 1.286.161.407.398.778.697 1.09.299.312.654.56 1.045.728.39.168.809.255 1.232.254ZM4.375 92.27c.849 0 1.679-.263 2.384-.756a4.441 4.441 0 0 0 1.58-2.011 4.66 4.66 0 0 0 .242-2.589 4.539 4.539 0 0 0-1.178-2.292 4.235 4.235 0 0 0-2.2-1.222 4.12 4.12 0 0 0-2.478.26 4.335 4.335 0 0 0-1.922 1.655 4.619 4.619 0 0 0-.717 2.491 4.577 4.577 0 0 0 1.26 3.157 4.2 4.2 0 0 0 3.03 1.307Zm72.438-26.372a518.011 518.011 0 0 1 13.499-7.55c.161.273.335.596.518.96a636.944 636.944 0 0 0-13.46 7.577l-.557-.987Zm60.179-23.85c-2.068-3.74-14.609.233-32.358 8.891.165.287.331.582.487.882 17.005-8.45 28.871-12.517 30.377-9.245 2.369 4.282-24.82 25.29-60.701 46.921-35.882 21.631-66.912 35.695-69.28 31.413-1.35-2.545 5.325-9.482 11.321-15-8.635 7.273-13.164 12.877-11.674 15.568 3.379 6.113 36.085-5.909 72.494-27.835 36.408-21.927 62.731-45.48 59.334-51.594Z" clip-rule="evenodd"/>
  <path fill="#FA00E9" d="M72.55 69.452a7.127 7.127 0 0 1-.812-4.554 6.951 6.951 0 0 1 2.142-4.057 6.434 6.434 0 0 1 4.121-1.718 6.396 6.396 0 0 1 4.229 1.404 6.905 6.905 0 0 1 2.416 3.885 7.144 7.144 0 0 1-.496 4.604 6.72 6.72 0 0 1-3.181 3.23 6.33 6.33 0 0 1-4.422.388 6.243 6.243 0 0 1-2.313-1.161 6.535 6.535 0 0 1-1.684-2.021Z"/>
</svg>
